!!!COM: Falla (y Matheu), Manuel de
!!!OTL: El sombrero de tres picos (The Three Cornered Hat), Ballet in Two Parts
!!!OMV: Part II: Dance of the Neighbours
!!!example: 308B
!!!work: Fal-6
**kern	**dynam
*grp:A	*grp:A
*I"Flute	*
*I'Fl.	*
*clefG2	*
*k[f#c#]	*
*D:	*
*M3/8	*
*MM96	*
=1	=1
8r	.
(16ddd'LL	pp
16ddd'J	.
8ddd'J	.
=2	=2
8ddd'L	.
8.eee~	.
16dddJk	.
=3	=3
8ccc#L)	.
16aaL	.
16bbJ	.
[8ccc#J	.
=4	=4
16ccc#LL]	.
(16aaJ	.
8.bb	.
16aaJk	.
=5	=5
8ggL	.
16aaL	.
16bbJ	.
[8aaJ	.
=6	=6
16aaLL]	.
16ff#J	.
8.gg	.
16ff#Jk	.
=7	=7
8eeL	.
16ff#L	.
16eeJ	.
[8ddJ)	.
==	==
*-	*-
!!!CDT: 1876/11/23-1946/11/14
!!!CBL: Cádiz, Spain
!!!CDL: Alta Gracia, Argentina
!!!CNT: Spanish
!!!AGN: Stage; Ballet
!!!MCN: Ansermet, Ernest
!!!MDT: 1919/07/22
!!!MGN: Ballets Russes
!!!MLC: London, United Kingdom
!!!MPD: 1919
!!!MPN: Rosovsku, Zoia
!!!ODT: 1919
!!!PDT: 1921
!!!excerpt-start-measure: 95
!!!excerpt-end-measure: 101
!!!excerpt-start-time: 1:43
!!!excerpt-end-time: 1:50
!!!ONB: Converted from MusicXML on 2019/06/04 and edited by Craig Stuart Sapp
!!!EEV: 2019/10/08
